ES1T1/14/aimg/foco.svg

<svg clip-rule="evenodd" fill-rule="evenodd" stroke-linejoin="round" stroke-miterlimit="2" viewBox="0 0 97 107" xmlns="http://www.w3.org/2000/svg" xmlns:xlink="http://www.w3.org/1999/xlink"><image height="11" transform="matrix(.992437 0 0 .987616 40.2513 1.76191)" width="16" xlink:href="data:image/png;base64,iVBORw0KGgoAAAANSUhEUgAAABAAAAALCAYAAAB24g05AAAACXBIWXMAAA7EAAAOxAGVKw4bAAAA1UlEQVQokY3Qy0pDMRhF4a/HgWLrUC0I1kHBG+h7hJCHDSGPIkKtIDhRVAR1IIo6sAdqqW33MGRt9vo7FiSXuo5T3KcYbuf9aRbAWzjHDfZyqd2VC3KpmzjDOMXwiBEOc6mdpQW51DWc4GoCSzE84Q37qywY4iHFcDfzPkY/l9r7tyCX2seGX+8/STF8zlNppuAuDnCZYvies6xVecXgT8HE+xijFMP7PHhGZbdVaRcM8dwebVGmVI5yqU2TS91BD9fL4BmVFwwabOMixfC1asEkY3z8AC8fSzGwTEGGAAAAAElFTkSuQmCC"/><g fill-rule="nonzero"><path d="m40.952 11.801-.73-.595c.293-.36.855-1.145 1.567-2.138 3.803-5.306 5.936-8.02 7.047-8.127.222-.022.429.046.582.19 1.072 1.009 5.262 7.36 6.682 9.887l-.82.462c-1.417-2.52-5.369-8.467-6.426-9.581-1.048.391-4.712 5.503-6.298 7.717-.722 1.007-1.292 1.802-1.604 2.185" fill="#af96a0"/><path d="m50.41 1.71c0 .856-.693 1.551-1.55 1.551-.856 0-1.551-.695-1.551-1.551s.695-1.551 1.551-1.551c.857 0 1.55.695 1.55 1.551" fill="#808285"/><path d="m50.203.937c.076.184.119.385.119.596 0 .856-.694 1.55-1.551 1.55-.575 0-1.075-.313-1.342-.778.233.561.786.955 1.431.955.857 0 1.55-.694 1.55-1.551 0-.281-.076-.544-.207-.772" fill="#58595b"/></g><image height="95" transform="matrix(.99346 0 0 .991232 10.1373 11.9572)" width="87" xlink:href="data:image/png;base64,iVBORw0KGgoAAAANSUhEUgAAAFcAAABfCAYAAACdm1sBAAAACXBIWXMAAA7EAAAOxAGVKw4bAAABD0lEQVR4nO3QwQ3CAAwAsZSW/ReFCWiBGUBYCHT+R0luuVyuj/mC277Pssxs6/by7HE/Zj2t4KrPev2zDzlv76/+hbAzM6dvH/DPigsVFyouVFyouFBxoeJCxYWKCxUXKi5UXKi4UHGh4kLFhYoLFRcqLlRcqLhQcaHiQsWFigsVFyouVFyouFBxoeJCxYWKCxUXKi5UXKi4UHGh4kLFhYoLFRcqLlRcqLhQcaHiQsWFigsVFyouVFyouFBxoeJCxYWKCxUXKi5UXKi4UHGh4kLFhYoLFRcqLlRcqLhQcaHiQsWFigsVFyouVFyouFBxoeJCxYWKCxUXKi5UXKi4UHGh4kLFhYoLFRcqLlRc6Al/VQqZGNKF3AAAAABJRU5ErkJggg=="/><path d="m.137 9.162h93.903v94.475h-93.903z" fill="#aeaebb"/><path d="m4.065 13.091h86.046v86.617h-86.046z" fill="#8ad0c5"/><path d="m16.412 24.824h61.912v63.733h-61.912z" fill="#fff"/><g fill-rule="nonzero"><path d="m18.034 27.059h.016l-5.067-5.238h-.187v69.156l5.238-5.238z" fill="#73c5b5"/><path d="m76.141 85.739h-58.107l-5.239 5.238h68.584v-.098z" fill="#a4dad6"/><path d="m81.38 21.821h-.329l-5.152 5.238h.243v58.68l5.238 5.14z" fill="#94d4cd"/><path d="m76.141 27.059 5.238-5.238h-68.396l5.066 5.238z" fill="#76cabb"/><g fill="#231f20"><path d="m.079 0h.104v-.463h.1v-.081h-.1v-.032c0-.095.065-.095.1-.096v-.082c-.077.001-.204.009-.204.173v.037h-.074v.081h.074z" transform="matrix(20 0 0 20 24.245 60.012)"/><path d="m.037-.272c0 .146.107.287.29.287s.29-.141.29-.287-.107-.288-.29-.288-.29.142-.29.287zm.104 0c0-.109.082-.19.186-.19s.186.081.186.19-.082.19-.186.19-.186-.081-.186-.189z" transform="matrix(20 0 0 20 29.585 60.012)"/><path d="m.497-.191c-.022.054-.079.109-.17.11-.104 0-.186-.079-.186-.191 0-.055.021-.106.053-.138.038-.036.078-.054.133-.053.074 0 .142.041.17.114h.107c-.034-.131-.151-.211-.281-.211-.163 0-.286.127-.286.288 0 .151.113.288.291.288.136 0 .243-.089.276-.207z" transform="matrix(20 0 0 20 42.685 60.012)"/><path d="m.037-.272c0 .146.107.287.29.287s.29-.141.29-.287-.107-.288-.29-.288-.29.142-.29.287zm.104 0c0-.109.082-.19.186-.19s.186.081.186.19-.082.19-.186.19-.186-.081-.186-.189z" transform="matrix(20 0 0 20 55.425 60.012)"/></g></g></svg>

<?xml version="1.0" encoding="UTF-8" standalone="no"?>
<!DOCTYPE svg PUBLIC "-//W3C//DTD SVG 1.1//EN" "http://www.w3.org/Graphics/SVG/1.1/DTD/svg11.dtd">
<svg width="100%" height="100%" viewBox="0 0 97 107" version="1.1" xmlns="http://www.w3.org/2000/svg" xmlns:xlink="http://www.w3.org/1999/xlink" xml:space="preserve" xmlns:serif="http://www.serif.com/" style="fill-rule:evenodd;clip-rule:evenodd;stroke-linejoin:round;stroke-miterlimit:2;">
    <g>
        <g id="_Image1_" serif:id="_Image1" transform="matrix(0.992437,0,0,0.987616,40.2513,1.76191)">
            <use id="_Image1_1" serif:id="_Image1" xlink:href="#_Image1" x="0" y="0" width="16px" height="11px"/>
        </g>
        <path d="M40.952,11.801L40.222,11.206C40.515,10.846 41.077,10.061 41.789,9.068C45.592,3.762 47.725,1.048 48.836,0.941C49.058,0.919 49.265,0.987 49.418,1.131C50.49,2.14 54.68,8.491 56.1,11.018L55.28,11.48C53.863,8.96 49.911,3.013 48.854,1.899C47.806,2.29 44.142,7.402 42.556,9.616C41.834,10.623 41.264,11.418 40.952,11.801" style="fill:rgb(175,150,160);fill-rule:nonzero;"/>
        <path d="M50.41,1.71C50.41,2.566 49.717,3.261 48.86,3.261C48.004,3.261 47.309,2.566 47.309,1.71C47.309,0.854 48.004,0.159 48.86,0.159C49.717,0.159 50.41,0.854 50.41,1.71" style="fill:rgb(128,130,133);fill-rule:nonzero;"/>
        <path d="M50.203,0.937C50.279,1.121 50.322,1.322 50.322,1.533C50.322,2.389 49.628,3.083 48.771,3.083C48.196,3.083 47.696,2.77 47.429,2.305C47.662,2.866 48.215,3.26 48.86,3.26C49.717,3.26 50.41,2.566 50.41,1.709C50.41,1.428 50.334,1.165 50.203,0.937" style="fill:rgb(88,89,91);fill-rule:nonzero;"/>
        <g id="_Image2_" serif:id="_Image2" transform="matrix(0.99346,0,0,0.991232,10.1373,11.9572)">
            <use id="_Image2_1" serif:id="_Image2" xlink:href="#_Image2" x="0" y="0" width="87px" height="95px"/>
        </g>
        <rect x="0.137" y="9.162" width="93.903" height="94.475" style="fill:rgb(174,174,187);"/>
        <rect x="4.065" y="13.091" width="86.046" height="86.617" style="fill:rgb(138,208,197);"/>
        <rect class="fondo" x="16.412" y="24.824" width="61.912" height="63.733" style="fill:white;"/>
        <path d="M18.034,27.059L18.05,27.059L12.983,21.821L12.796,21.821L12.796,90.977L18.034,85.739L18.034,27.059Z" style="fill:rgb(115,197,181);fill-rule:nonzero;"/>
        <path d="M76.141,85.739L18.034,85.739L12.795,90.977L81.379,90.977L81.379,90.879L76.141,85.739Z" style="fill:rgb(164,218,214);fill-rule:nonzero;"/>
        <path d="M81.38,21.821L81.051,21.821L75.899,27.059L76.142,27.059L76.142,85.739L81.38,90.879L81.38,21.821Z" style="fill:rgb(148,212,205);fill-rule:nonzero;"/>
        <path d="M76.141,27.059L81.379,21.821L12.983,21.821L18.049,27.059L76.141,27.059Z" style="fill:rgb(118,202,187);fill-rule:nonzero;"/>
        <g>
            <g transform="matrix(20,0,0,20,24.245,60.012)">
                <path d="M0.079,0L0.183,0L0.183,-0.463L0.283,-0.463L0.283,-0.544L0.183,-0.544L0.183,-0.576C0.183,-0.671 0.248,-0.671 0.283,-0.672L0.283,-0.754C0.206,-0.753 0.079,-0.745 0.079,-0.581L0.079,-0.544L0.005,-0.544L0.005,-0.463L0.079,-0.463L0.079,0Z" style="fill:rgb(35,31,32);fill-rule:nonzero;"/>
            </g>
            <g transform="matrix(1,0,0,1,29.585,60.012)">
                <g transform="matrix(20,0,0,20,0,0)">
                    <path d="M0.037,-0.272C0.037,-0.126 0.144,0.015 0.327,0.015C0.51,0.015 0.617,-0.126 0.617,-0.272C0.617,-0.418 0.51,-0.56 0.327,-0.56C0.144,-0.56 0.037,-0.418 0.037,-0.273L0.037,-0.272ZM0.141,-0.272C0.141,-0.381 0.223,-0.462 0.327,-0.462C0.431,-0.462 0.513,-0.381 0.513,-0.272C0.513,-0.163 0.431,-0.082 0.327,-0.082C0.223,-0.082 0.141,-0.163 0.141,-0.271L0.141,-0.272Z" style="fill:rgb(35,31,32);fill-rule:nonzero;"/>
                </g>
                <g transform="matrix(20,0,0,20,13.1,0)">
                    <path d="M0.497,-0.191C0.475,-0.137 0.418,-0.082 0.327,-0.081C0.223,-0.081 0.141,-0.16 0.141,-0.272C0.141,-0.327 0.162,-0.378 0.194,-0.41C0.232,-0.446 0.272,-0.464 0.327,-0.463C0.401,-0.463 0.469,-0.422 0.497,-0.349L0.604,-0.349C0.57,-0.48 0.453,-0.56 0.323,-0.56C0.16,-0.56 0.037,-0.433 0.037,-0.272C0.037,-0.121 0.15,0.016 0.328,0.016C0.464,0.016 0.571,-0.073 0.604,-0.191L0.497,-0.191Z" style="fill:rgb(35,31,32);fill-rule:nonzero;"/>
                </g>
                <g transform="matrix(20,0,0,20,25.84,0)">
                    <path d="M0.037,-0.272C0.037,-0.126 0.144,0.015 0.327,0.015C0.51,0.015 0.617,-0.126 0.617,-0.272C0.617,-0.418 0.51,-0.56 0.327,-0.56C0.144,-0.56 0.037,-0.418 0.037,-0.273L0.037,-0.272ZM0.141,-0.272C0.141,-0.381 0.223,-0.462 0.327,-0.462C0.431,-0.462 0.513,-0.381 0.513,-0.272C0.513,-0.163 0.431,-0.082 0.327,-0.082C0.223,-0.082 0.141,-0.163 0.141,-0.271L0.141,-0.272Z" style="fill:rgb(35,31,32);fill-rule:nonzero;"/>
                </g>
            </g>
        </g>
    </g>
    <defs>
        <image id="_Image1" width="16px" height="11px" xlink:href="data:image/png;base64,iVBORw0KGgoAAAANSUhEUgAAABAAAAALCAYAAAB24g05AAAACXBIWXMAAA7EAAAOxAGVKw4bAAAA1UlEQVQokY3Qy0pDMRhF4a/HgWLrUC0I1kHBG+h7hJCHDSGPIkKtIDhRVAR1IIo6sAdqqW33MGRt9vo7FiSXuo5T3KcYbuf9aRbAWzjHDfZyqd2VC3KpmzjDOMXwiBEOc6mdpQW51DWc4GoCSzE84Q37qywY4iHFcDfzPkY/l9r7tyCX2seGX+8/STF8zlNppuAuDnCZYvies6xVecXgT8HE+xijFMP7PHhGZbdVaRcM8dwebVGmVI5yqU2TS91BD9fL4BmVFwwabOMixfC1asEkY3z8AC8fSzGwTEGGAAAAAElFTkSuQmCC"/>
        <image id="_Image2" width="87px" height="95px" xlink:href="data:image/png;base64,iVBORw0KGgoAAAANSUhEUgAAAFcAAABfCAYAAACdm1sBAAAACXBIWXMAAA7EAAAOxAGVKw4bAAABD0lEQVR4nO3QwQ3CAAwAsZSW/ReFCWiBGUBYCHT+R0luuVyuj/mC277Pssxs6/by7HE/Zj2t4KrPev2zDzlv76/+hbAzM6dvH/DPigsVFyouVFyouFBxoeJCxYWKCxUXKi5UXKi4UHGh4kLFhYoLFRcqLlRcqLhQcaHiQsWFigsVFyouVFyouFBxoeJCxYWKCxUXKi5UXKi4UHGh4kLFhYoLFRcqLlRcqLhQcaHiQsWFigsVFyouVFyouFBxoeJCxYWKCxUXKi5UXKi4UHGh4kLFhYoLFRcqLlRcqLhQcaHiQsWFigsVFyouVFyouFBxoeJCxYWKCxUXKi5UXKi4UHGh4kLFhYoLFRcqLlRc6Al/VQqZGNKF3AAAAABJRU5ErkJggg=="/>
    </defs>
</svg>
